icons/1_Primary/KnowBe4.svg

<svg xmlns="http://www.w3.org/2000/svg" width="1024" height="1024" fill="none">
   <g clip-path="url(#a)">
      <path fill="#F8C18C" d="M512 1024c282.77 0 512-229.23 512-512S794.77 0 512 0 0 229.23 0 512s229.23 512 512 512Z"/>
      <path fill="#fff" d="M512 256c-141.35 0-256 114.65-256 256s114.65 256 256 256 256-114.65 256-256c0-141.16-114.65-256-256-256Zm131.36 395.81-26.119-29.383c30.344-27.079 48.588-64.528 50.893-105.24 2.305-40.714-11.139-79.892-38.41-110.43-27.079-30.536-64.528-48.588-105.24-51.085-40.714-2.305-79.892 11.331-110.43 38.41-26.119 23.238-42.827 53.773-48.78 87.766l39.178 1.344-62.992 84.885-50.317-88.918 34.761 1.153c6.53-44.555 28.231-85.077 62.224-115.42 38.41-34.185 87.766-51.277 138.85-48.396 51.277 3.072 98.137 25.734 132.32 63.952 34.185 38.41 51.277 87.766 48.204 139.04-3.073 51.277-25.734 98.329-64.144 132.32"/>
   </g>
   <defs>
      <clipPath id="a">
         <path fill="#fff" d="M0 0h1024v1024H0z"/>
      </clipPath>
   </defs>
</svg>

<svg width="1024" height="1024" viewBox="0 0 1024 1024" fill="none" xmlns="http://www.w3.org/2000/svg">
<g clip-path="url(#clip0_2_2616)">
<path d="M512 1024C794.77 1024 1024 794.77 1024 512C1024 229.23 794.77 0 512 0C229.23 0 0 229.23 0 512C0 794.77 229.23 1024 512 1024Z" fill="#F8C18C"/>
<path d="M512 256C370.65 256 256 370.65 256 512C256 653.35 370.65 768 512 768C653.35 768 768 653.35 768 512C768 370.84 653.35 256 512 256ZM643.36 651.81L617.241 622.427C647.585 595.348 665.829 557.899 668.134 517.187C670.439 476.473 656.995 437.295 629.724 406.757C602.645 376.221 565.196 358.169 524.484 355.672C483.77 353.367 444.592 367.003 414.054 394.082C387.935 417.32 371.227 447.855 365.274 481.848L404.452 483.192L341.46 568.077L291.143 479.159L325.904 480.312C332.434 435.757 354.135 395.235 388.128 364.892C426.538 330.707 475.894 313.615 526.978 316.496C578.255 319.568 625.115 342.23 659.298 380.448C693.483 418.858 710.575 468.214 707.502 519.488C704.429 570.765 681.768 617.817 643.358 651.808" fill="white"/>
</g>
<defs>
<clipPath id="clip0_2_2616">
<rect width="1024" height="1024" fill="white"/>
</clipPath>
</defs>
</svg>
